Papirus-nordic/32x32/places/folder-red-backup.svg

<svg xmlns="http://www.w3.org/2000/svg" width="32" height="32" version="1">
 <rect style="opacity:.2" width="25" height="16" x="3" y="12" rx="1.25" ry="1.25"/>
 <path style="fill:#ae4f58" d="m3 21.75c0 0.692 0.5575 1.25 1.25 1.25h22.5c0.692 0 1.25-0.558 1.25-1.25v-13.5c0-0.6925-0.558-1.25-1.25-1.25h-12.75v-0.75c0-0.6925-0.557-1.25-1.25-1.25h-8.5c-0.6925 0-1.25 0.5575-1.25 1.25"/>
 <rect style="opacity:.2" width="25" height="16" x="3" y="10" rx="1.25" ry="1.25"/>
 <rect style="fill:#e4e4e4" width="21" height="10" x="5" y="9" rx="1.25" ry="1.25"/>
 <rect style="fill:#bf616a" width="25" height="16" x="3" y="11" rx="1.25" ry="1.25"/>
 <path style="opacity:.1;fill:#ffffff" d="m4.25 5c-0.6925 0-1.25 0.5575-1.25 1.25v1c0-0.6925 0.5575-1.25 1.25-1.25h8.5c0.693 0 1.25 0.5575 1.25 1.25v0.75h12.75c0.692 0 1.25 0.5575 1.25 1.25v-1c0-0.6925-0.558-1.25-1.25-1.25h-12.75v-0.75c0-0.6925-0.557-1.25-1.25-1.25h-8.5z"/>
 <path style="fill:#974a4d" d="m15.607422 13.011719c-0.33596 0.021972-0.67371 0.073469-1.009766 0.154297-2.688447 0.646633-4.594183 3.061061-4.597656 5.826172a1.0001 1.0001 0 0 0 0 0.007812h-1l2 2 2-2h-1a1.0001 1.0001 0 0 0 0 -0.005859c0.0023-1.852241 1.263577-3.449661 3.064453-3.882813 1.800879-0.433152 3.651746 0.41586 4.496094 2.064453 0.844348 1.648592 0.452744 3.647246-0.951172 4.855469-1.381932 1.189304-3.520755 1.236987-5.025391 0.15625a1.0005966 1.0005966 0 0 0 -1.167968 1.625c2.245578 1.612935 5.380223 1.556995 7.498046-0.265625 2.095842-1.803701 2.68627-4.820142 1.425782-7.28125-0.945366-1.845831-2.75319-3.030673-4.732422-3.234375-0.329872-0.03395-0.664041-0.041503-1-0.019531zm0.376953 2.974609a1.0001 1.0001 0 0 0 -0.984375 1.013672v2a1.0001 1.0001 0 0 0 0.292969 0.707031l1 1a1.0001 1.0001 0 1 0 1.414062 -1.414062l-0.707031-0.707031v-1.585938a1.0001 1.0001 0 0 0 -1.015625 -1.013672z"/>
</svg>

<svg xmlns="http://www.w3.org/2000/svg" width="32" height="32" version="1"><rect width="25" height="16" x="3" y="12" rx="1.25" ry="1.25" opacity=".2"/><path d="M3 21.75c0 .692.557 1.25 1.25 1.25h22.5c.692 0 1.25-.558 1.25-1.25V8.25C28 7.557 27.442 7 26.75 7H14v-.75C14 5.557 13.443 5 12.75 5h-8.5C3.557 5 3 5.557 3 6.25" fill="#ae4f58"/><rect width="25" height="16" x="3" y="10" rx="1.25" ry="1.25" opacity=".2"/><rect width="21" height="10" x="5" y="9" rx="1.25" ry="1.25" fill="#e4e4e4"/><rect width="25" height="16" x="3" y="11" rx="1.25" ry="1.25" fill="#bf616a"/><path d="M4.25 5C3.557 5 3 5.557 3 6.25v1C3 6.557 3.557 6 4.25 6h8.5c.693 0 1.25.557 1.25 1.25V8h12.75c.692 0 1.25.557 1.25 1.25v-1C28 7.557 27.442 7 26.75 7H14v-.75C14 5.557 13.443 5 12.75 5h-8.5z" opacity=".1" fill="#fff"/><path d="M15.607 13.012A6.01 6.01 0 0 0 10 18.992 1 1 0 0 0 10 19H9l2 2 2-2h-1a1 1 0 0 0 0-.006 3.99 3.99 0 0 1 3.064-3.883 3.99 3.99 0 0 1 4.497 2.065 3.991 3.991 0 0 1-.952 4.855c-1.382 1.19-3.52 1.237-5.025.156a1 1 0 0 0-1.168 1.625c2.246 1.613 5.38 1.557 7.498-.265a6.007 6.007 0 0 0 1.426-7.281 6.011 6.011 0 0 0-5.733-3.254zm.377 2.974A1 1 0 0 0 15 17v2a1 1 0 0 0 .293.707l1 1a1 1 0 1 0 1.414-1.414L17 18.586V17a1 1 0 0 0-1.016-1.014z" fill="#974a4d"/></svg>
